!!!ONB: MCCC : IEG0138_02 : Extracted Monophonic Melody
!!!COM: Grieg, Edvard
!!!OPR: Violin Sonata No.3, Op.45
!!!OMV: 2
!!!SCT: Op.45
!!!ODT: 1887///
**kern
*staff1
*clefG2
*k[f#]
*e:
*M2/4
4e
=47
8g#
8a
4b[
=48
4b]
8a
8g#
=49
4g#
4f#[
=50
4f#]
4d#
=51
8e
8f#
4g#[
=52
4g#]
8e
8d#
=53
2B[
=54
4B]
4g#
=55
8b
8cc#
4dd#[
=56
4dd#]
8cc#
8dd#
=57
4cc#
4b[
=58
4b]
4g#
=59
8b
8cc#
4dd#[
=60
4dd#]
8cc#
8dd#
=61
2b[
=62
4b]
4b
=63
8cc#
8dd#
4ee[
=64
4ee]
8dd#
8cc#
=65
4dd#
4b[
=66
4b]
4g#
=67
8a
8b
4cc#[
=68
4cc#]
8b
8a
=69
2b[
=70
4b]
4g#
=71
8e
8f#
4g#[
=72
4g#]
8f#
8e
=73
8g
8a
4b[
=74
4b]
8a
8g
=75
8b
8cc#
4dd#[
=76
4dd#]
8cc#
8dd#
=77
4cc#
4b[
=78
4b]
4g#
=79
8b
8cc#
4dd#[
=80
8dd#]
8dd#
8cc#
16dd#
32cc#
32dd#
=81
8cc#
8b
4b[
=82
8b]
8g#
8f#
8d#
=83
8B
8c#
8d#
8B
=84
8c#
8d#
8B
8d#
=85
4c#
4f#[
=86
4f#]
4e
=87
2e
=88
2e
=89
2e
=90
4e
8B]
8b
=91
4b
4b
=92
4b
4b
=93
16b
16cc#
16dd#
16cc#
8dd#
16cc#
16dd#
=94
2b
=95
4ee
4ee
=96
4ee
4ee
=97
16ee
16ff#
16gg
16ff#
8gg
16ff#
16gg
=98
2ee
=99
4ff#
4ff#
=100
4gg
8ff#
8ee
=101
4ff#
4b[
=102
2b]
=103
4ff#
4ff#
=104
4gg
8ff#
8ee
=105
4bb
4b[
=106
2b]
=107
4r
4ee
=108
4r
4ee
=109
4r
8r
8B
=110
8d#
8f#
8b
8dd#
=111
4r
4aa
=112
4r
4aa
=113
4r
8r
8e
=114
8g
8b
8ee
8gg
=115
4r
4bb
=116
4r
4aa
=117
4r
4bb
=118
2r
=119
4r
4bb
=120
4r
4bb-
=121
4r
4bb
=122
2r
=123
4cc
4cc
=124
4cc
4cc
=125
16cc
16dd
16ee
16dd
8ee
16dd
16ee
=126
2cc[
=127
4cc]
4bb[
=128
8bb]
16aa
32gg
32aa
12gg
12ee
12cc
=129
2b[
=130
4b]
4a
=131
4ff
4ff
=132
4ff
4ff
=133
16ff
16gg
16aa
16gg
8aa
16gg
16aa
=134
2ff[
=135
4ff]
4eee[
=136
8eee]
16ddd
32ccc
32ddd
12ccc
12aa
12ff
=137
2ee[
=138
4ee]
4dd
=139
4eee
4eee
=140
4eee
4eee
=141
16eee
16fff#
16ggg
16fff#
8ggg
16fff#
16ggg
=142
2eee
=143
4ee
4ee
=144
4ee
4ee
=145
16ee
16ff#
16gg
16ff#
8gg
16ff#
16gg
=146
2ee
=147
8r
8ee
8ff#
8gg
=148
8ee
8b
8cc#
8dd#
=149
8b
8g
8e
8f#
=150
4.g
8d#
=151
4e
4e
=152
4e
4e
=153
16e
16f#
16g
16f#
8g
16f#
16g
=154
2e
=155
4r
4ff#
=156
4r
4ff
=157
4r
8r
8c
=158
8e
8a
8cc
8ee
=159
2r
=160
4gg
4r
=161
2r
=162
4ff#
4r
=163
4r
4bb
=164
4r
4bb-
=165
4r
8r
8f
=166
8a
8dd
8ff
8aa
=167
2r
=168
4ccc
4r
=169
2r
=170
4bb
4r
=171
4r
4eee
=172
4r
4eee
=173
4r
8r
8b-
=174
8ee
8gg
8bb-
8eee
=175
4r
4ee
=176
4r
4ee
=177
4r
8r
8B-
=178
8e
8g
8b-
8ee
=179
4r
4bb
=180
2r
=181
2r
=182
4r
4dd#
=183
4r
4ee
=184
4r
4ee
=185
4r
4ee
=186
2r
=187
4r
4ee
=188
2r
=189
4r
4ee
=190
2r
=191
2r
=192
2r
=193
2r
=194
2r
=195
4r
4g#
=196
4g#
4g#
=197
2g#[
=198
2g#]
=199
4r
4g#
=200
4g#
8g#
24f#
24g#
24a
=201
2g#[
=202
2g#]
=203
4r
4g#
=204
4r
4a
=205
4r
4b-
=206
4r
4b
=207
8r
8b
8a#
8b
=208
8cc#
8dd#
8ee
8ff#
=209
8gg#
8aa
8bb-
8bb
=210
8ccc#
8ddd#
8eee
8fff#
=211
8ggg
8ggg#
4bbb-[
=212
4bbb-]
8ggg#
8ggg
=213
4ggg
4fff[
=214
4fff]
4ccc
=215
8ddd#
8fff
4ggg[
=216
4ggg]
8ddd#
8ddd
=217
2bb-[
=218
4bb-]
4bb-
=219
8bb
8ccc#
4ddd#[
=220
4ddd#]
8ccc#
8ddd#
=221
4ccc#
4bb[
=222
4bb]
4gg#
=223
8bb
8ccc#
4ddd#[
=224
4ddd#]
8ccc#
8ddd#
=225
2bb[
=226
4bb]
4bb
=227
8ccc#
8ddd#
4eee[
=228
4eee]
8ddd#
8ccc#
=229
4ddd#
4bb[
=230
4bb]
4gg#
=231
8aa
8bb
4ccc#[
=232
4ccc#]
8bb
8aa
=233
2bb[
=234
4bb]
4gg#
=235
8ee
8ff#
4gg#[
=236
4gg#]
8ff#
8ee
=237
8gg
8aa
4bb[
=238
4bb]
8aa
8gg
=239
8bb
8ccc#
4ddd#[
=240
4ddd#]
8ccc#
8ddd#
=241
4ccc#
4bb[
=242
4bb]
4gg#
=243
8bb
8ccc#
4ddd#[
=244
8ddd#]
8ddd#
8ccc#
16ddd#
32ccc#
32ddd#
=245
8ccc#
8bb
4bb[
=246
4bb]
4gg#
=247
8bb
8ccc#
8ddd#
8bb
=248
8ccc#
8ddd#
8bb
8ddd#
=249
4ccc#
4fff#[
=250
4fff#]
4eee
=251
2eee[
=252
4eee]
4e
=253
2f#[
=254
4f#]
4f#
=255
32g#
32a
32g#
32a
32g#
32a
32g#
32a
32g#
32a
32g#
32a
16f#
16g#
=256
32a
32b
32a
32b
32a
32b
32a
32b
32a
32b
32a
32b
16g#
16a
=257
2b-[
=258
4b-]
4b-
=259
2b[
=260
4b]
4b
=261
32cc
32dd
32cc
32dd
32cc
32dd
32cc
32dd
32cc
32dd
32cc
32dd
16b
16cc
=262
32dd
32ee
32dd
32ee
32dd
32ee
32dd
32ee
32dd
32ee
32dd
32ee
16cc
16dd
=263
2ee
=264
2ee[
=265
8ee]
8b
8ee
8gg#
=266
8bb
8eee
8ggg#
8bbb
=267
2eeee
=268
2eeee[
=269
4eeee]
4r
==
*-
